X: 42895
T: Will You Come Down To Limerick
R: slip jig
M: 9/8
K: Gmixolydian
|:d|cAG GDG GGd|cAG GDE FFd|cAG GDG GAG|1 FGA fed cA:|2 FGA fed cA||
A|de^f gaf ~g3|de^f gag fed|cde fge ~f3|cde fed cA^F|
de^f gaf ~g3|de^f gag fga|bgg ag^f g2e|fed cAG ^FGA||
|:B2d cA^F ~G3|~B3 GBd cBA|BDD ADD ~G3|1 ^FGA =fed cAG:|2 ^FGA =fed cAd||

